wp_data/wp-content/themes/eurostone/assets/images/decor.svg

<svg width="250" height="16" viewBox="0 0 250 16" fill="none" xmlns="http://www.w3.org/2000/svg">
<path d="M132.504 2.52471L130.014 5.01436L125 0L119.986 5.01436L117.496 2.52471L112.669 7.35206H0V8.52091H112.669L117.496 13.3483L119.986 10.8586L125 15.873L130.014 10.8586L132.504 13.3483L137.331 8.52091H250V7.35206H137.331L132.504 2.52471ZM117.496 11.7002L113.732 7.93648L117.496 4.17279L119.167 5.84424L117.075 7.93648L119.167 10.0287L117.496 11.7002ZM119.986 6.67413L121.248 7.93648L119.986 9.19884L118.723 7.93648L119.986 6.67413ZM125 14.2249L120.816 10.0404L122.908 7.94817L120.816 5.85593L125 1.67145L129.184 5.85593L127.092 7.94817L129.184 10.0404L125 14.2249ZM130.014 6.67413L131.277 7.93648L130.014 9.19884L128.752 7.93648L130.014 6.67413ZM132.504 11.7002L130.833 10.0287L132.925 7.93648L130.833 5.84424L132.504 4.17279L136.268 7.93648L132.504 11.7002Z" fill="#D0B886"/>
</svg>

<svg width="250" height="16" fill="none" xmlns="http://www.w3.org/2000/svg"><path d="M132.504 2.525l-2.49 2.49L125 0l-5.014 5.014-2.49-2.49-4.827 4.828H0v1.169h112.669l4.827 4.827 2.49-2.49L125 15.874l5.014-5.014 2.49 2.49 4.827-4.828H250v-1.17H137.331l-4.827-4.827zM117.496 11.7l-3.764-3.764 3.764-3.763 1.671 1.671-2.092 2.092 2.092 2.093-1.671 1.671zm2.49-5.026l1.262 1.262-1.262 1.263-1.263-1.263 1.263-1.262zm5.014 7.55l-4.184-4.184 2.092-2.092-2.092-2.092L125 1.67l4.184 4.185-2.092 2.092 2.092 2.092L125 14.225zm5.014-7.55l1.263 1.262-1.263 1.263-1.262-1.263 1.262-1.262zm2.49 5.026l-1.671-1.671 2.092-2.093-2.092-2.092 1.671-1.671 3.764 3.763-3.764 3.764z" fill="#D0B886"/></svg>
